flaticon/weather/wind-2.svg

<svg xmlns="http://www.w3.org/2000/svg" width="32" height="32" viewBox="0 0 24 24">
    <path d="M 13.847656 19.847656 C 13.84375 19.847656 13.84375 19.847656 13.84375 19.847656 L 6.699219 19.878906 C 6.636719 19.878906 6.578125 19.878906 6.519531 19.871094 L 6.179688 19.839844 C 3.234375 19.691406 0.921875 17.261719 0.921875 14.308594 C 0.921875 11.253906 3.40625 8.769531 6.460938 8.769531 L 18.460938 8.769531 C 20.496094 8.769531 22.152344 7.113281 22.152344 5.078125 L 22.152344 4.390625 C 22.152344 2.855469 21.054688 1.570312 19.597656 1.402344 C 19.199219 1.359375 18.800781 1.394531 18.410156 1.507812 C 16.824219 1.972656 15.914062 3.644531 16.378906 5.230469 C 16.453125 5.476562 16.707031 5.617188 16.953125 5.542969 C 17.195312 5.472656 17.335938 5.214844 17.265625 4.972656 C 16.941406 3.871094 17.574219 2.714844 18.671875 2.394531 C 18.941406 2.3125 19.21875 2.289062 19.492188 2.320312 C 20.46875 2.433594 21.230469 3.34375 21.230469 4.390625 L 21.230469 5.078125 C 21.230469 6.605469 19.988281 7.847656 18.460938 7.847656 L 6.460938 7.847656 C 2.898438 7.847656 0 10.746094 0 14.308594 C 0 17.753906 2.695312 20.589844 6.113281 20.757812 L 6.425781 20.789062 C 6.515625 20.800781 6.605469 20.804688 6.699219 20.804688 L 13.847656 20.769531 C 14.101562 20.769531 14.308594 20.5625 14.308594 20.304688 C 14.304688 20.050781 14.101562 19.847656 13.847656 19.847656 Z M 13.847656 19.847656"/>
    <path d="M 19.890625 15.277344 L 6.96875 15.277344 L 6.460938 15.230469 C 5.953125 15.230469 5.539062 14.816406 5.539062 14.308594 C 5.539062 13.796875 5.953125 13.382812 6.460938 13.382812 L 18.460938 13.382812 C 18.714844 13.382812 18.921875 13.179688 18.921875 12.921875 C 18.921875 12.667969 18.714844 12.460938 18.460938 12.460938 L 6.460938 12.460938 C 5.445312 12.460938 4.617188 13.289062 4.617188 14.308594 C 4.617188 15.324219 5.441406 16.152344 6.414062 16.152344 C 6.414062 16.152344 6.414062 16.152344 6.417969 16.152344 L 6.921875 16.199219 L 19.890625 16.199219 C 21.648438 16.199219 23.078125 17.628906 23.078125 19.382812 C 23.078125 19.425781 23.089844 19.460938 23.101562 19.5 C 23.089844 19.539062 23.078125 19.574219 23.078125 19.617188 C 23.078125 20.761719 22.144531 21.691406 21 21.691406 C 19.855469 21.691406 18.921875 20.761719 18.921875 19.617188 C 18.921875 19.359375 18.714844 19.152344 18.460938 19.152344 C 18.207031 19.152344 18 19.359375 18 19.617188 C 18 21.269531 19.347656 22.617188 21 22.617188 C 22.652344 22.617188 24 21.269531 24 19.617188 C 24 19.574219 23.988281 19.539062 23.976562 19.5 C 23.988281 19.460938 24 19.425781 24 19.382812 C 24 17.117188 22.15625 15.277344 19.890625 15.277344 Z M 19.890625 15.277344"/>
    <path d="M 18.460938 10.152344 L 6.460938 10.152344 C 4.171875 10.152344 2.308594 12.015625 2.308594 14.308594 C 2.308594 16.550781 4.0625 18.375 6.277344 18.457031 L 6.699219 18.496094 L 19.890625 18.507812 C 20.144531 18.507812 20.351562 18.300781 20.351562 18.046875 C 20.351562 17.789062 20.148438 17.582031 19.890625 17.582031 L 6.742188 17.574219 L 6.339844 17.535156 C 4.597656 17.472656 3.230469 16.054688 3.230469 14.308594 C 3.230469 12.527344 4.679688 11.078125 6.460938 11.078125 L 18.460938 11.078125 C 21.515625 11.078125 24 8.59375 24 5.539062 C 24 5.285156 23.792969 5.078125 23.539062 5.078125 C 23.285156 5.078125 23.078125 5.285156 23.078125 5.539062 C 23.078125 8.082031 21.007812 10.152344 18.460938 10.152344 Z M 18.460938 10.152344"/>
</svg>

<svg xmlns="http://www.w3.org/2000/svg" width="32" height="32" viewBox="0 0 24 24">
    <path d="M13.848 19.848h-.004l-7.145.03c-.062 0-.12 0-.18-.007l-.34-.031a5.536 5.536 0 0 1-5.257-5.531 5.545 5.545 0 0 1 5.539-5.54h12a3.696 3.696 0 0 0 3.691-3.69V4.39c0-1.536-1.097-2.82-2.554-2.989a3.003 3.003 0 0 0-3.219 3.828.462.462 0 0 0 .887-.258 2.076 2.076 0 0 1 1.406-2.577 2.02 2.02 0 0 1 .82-.075c.977.114 1.738 1.024 1.738 2.07v.688a2.772 2.772 0 0 1-2.77 2.77h-12A6.468 6.468 0 0 0 0 14.308c0 3.446 2.695 6.282 6.113 6.45l.313.031c.09.012.18.016.273.016l7.149-.035a.461.461 0 1 0 0-.922zm0 0"/>
    <path d="M19.89 15.277H6.97l-.508-.047a.924.924 0 0 1 0-1.847h12a.462.462 0 0 0 0-.922h-12a1.848 1.848 0 0 0-1.844 1.848c0 1.015.824 1.843 1.797 1.843h.004l.504.047H19.89a3.19 3.19 0 0 1 3.187 3.184c0 .043.012.078.024.117-.012.04-.024.074-.024.117a2.079 2.079 0 0 1-4.156 0 .463.463 0 0 0-.461-.465.463.463 0 0 0-.461.465c0 1.653 1.348 3 3 3s3-1.347 3-3c0-.043-.012-.078-.023-.117.011-.04.023-.074.023-.117a4.111 4.111 0 0 0-4.11-4.106zm0 0"/>
    <path d="M18.46 10.152h-12A4.159 4.159 0 0 0 2.31 14.31c0 2.242 1.753 4.066 3.968 4.148l.422.04 13.192.01c.254 0 .46-.206.46-.46a.46.46 0 0 0-.46-.465l-13.149-.008-.402-.039a3.217 3.217 0 0 1-3.11-3.226c0-1.782 1.45-3.23 3.23-3.23h12A5.545 5.545 0 0 0 24 5.538a.462.462 0 0 0-.922 0 4.62 4.62 0 0 1-4.617 4.613zm0 0"/>
</svg>
